X:1
T:Fletcher's Delight -- Reel
R:reel
B:Ryan's Mammoth Collection
N: 371
Z: Contributed by Ray Davies,  ray:davies99.freeserve.co.uk
M:2/4
L:1/16
K:A
veA(3AAA eAce | faec BABc | eA(3AAA eAce | faec B2A2 |
eA(3AAA eAce | faec BABc | eA(3AAA eAce | faec B2A2 :|
|:Aceg a2ae | faec BAFE | Aceg a2ae | faec B2A2 |
Aceg a2ae | faec BAFE | Aceg a2ae | fefg agaf "_D.C.":|
